packages/core/src/svgs/tokens/mono/OMMI.svg

<svg width="24" height="24" viewBox="0 0 24 24" fill="none" xmlns="http://www.w3.org/2000/svg">
<path d="M13.5929 3.89988C16.0303 4.08738 18.1678 5.33738 19.5366 7.19361L21.0553 6.08737C20.1845 4.9054 19.0649 3.92898 17.7755 3.22703C16.486 2.52508 15.0582 2.11471 13.5929 2.0249V3.89988ZM6.74918 4.14988C5.37728 5.23273 4.31314 6.65623 3.66283 8.2785C3.01252 9.90071 2.79874 11.6651 3.04282 13.3957C3.28688 15.1265 3.98027 16.7629 5.05388 18.142C6.12748 19.5211 7.54379 20.5949 9.16165 21.2561L9.8054 19.4936C8.49781 18.9468 7.35594 18.0678 6.4932 16.9434C5.63044 15.8189 5.0768 14.4885 4.88726 13.0839C4.69773 11.6794 4.87886 10.2497 5.4127 8.93685C5.94653 7.62398 6.8145 6.47358 7.93042 5.59988L6.74292 4.14988H6.74918ZM14.4053 19.9997L14.7178 21.8498C17.2178 21.4123 19.399 20.0498 20.8928 18.1248L19.5116 16.8435C18.2726 18.5066 16.4468 19.6352 14.4053 19.9997Z" fill="white"/>
<path d="M10.4565 5.74996C11.4954 5.74996 12.3377 4.91051 12.3377 3.87498C12.3377 2.83945 11.4954 2 10.4565 2C9.41745 2 8.5752 2.83945 8.5752 3.87498C8.5752 4.91051 9.41745 5.74996 10.4565 5.74996Z" fill="white"/>
<path d="M8.57509 13.25C9.26889 13.25 9.83133 12.6903 9.83133 11.9999C9.83133 11.3096 9.26889 10.75 8.57509 10.75C7.88128 10.75 7.31885 11.3096 7.31885 11.9999C7.31885 12.6903 7.88128 13.25 8.57509 13.25Z" fill="white"/>
<path d="M12.0004 22C12.8667 22 13.5692 21.3005 13.5692 20.4374C13.5692 19.5746 12.8667 18.875 12.0004 18.875C11.134 18.875 10.4316 19.5746 10.4316 20.4374C10.4316 21.3005 11.134 22 12.0004 22Z" fill="white"/>
<path d="M15.6248 14.65C15.2133 15.0641 14.7109 15.3766 14.1576 15.5627C13.6043 15.749 13.0151 15.8035 12.4371 15.7223C11.8588 15.6409 11.3076 15.4259 10.8271 15.0945C10.3466 14.763 9.94985 14.324 9.66855 13.8124L7.79356 14.2499C8.16209 15.0915 8.73054 15.8305 9.44951 16.4024C10.1685 16.9745 11.0162 17.3624 11.9192 17.5323C12.8221 17.7024 13.7529 17.6493 14.6307 17.3779C15.5084 17.1065 16.3066 16.6248 16.956 15.9748L15.6248 14.65ZM15.8122 9.54991C15.4208 9.09404 14.9258 8.73881 14.3686 8.51389C13.8115 8.28897 13.2085 8.20099 12.6103 8.25731C12.0121 8.31365 11.4362 8.51265 10.9309 8.83761C10.4255 9.16258 10.0055 9.60402 9.70605 10.1249H7.64355C7.97286 9.19379 8.54074 8.36537 9.29047 7.72246C10.0402 7.07952 10.9455 6.64461 11.916 6.46114C12.8864 6.27768 13.8881 6.3521 14.8207 6.67697C15.7534 7.00184 16.5845 7.56577 17.231 8.31244L15.8122 9.54991Z" fill="white"/>
</svg>

<svg xmlns="http://www.w3.org/2000/svg" width="24" height="24" fill="none" viewBox="0 0 24 24">
    <path fill="#fff" d="M13.593 3.9a8.15 8.15 0 0 1 5.944 3.294l1.518-1.107a10.03 10.03 0 0 0-7.462-4.062zm-6.844.25a10 10 0 0 0 2.413 17.106l.643-1.762A8.126 8.126 0 0 1 7.93 5.6L6.743 4.15zM14.405 20l.313 1.85c2.5-.438 4.681-1.8 6.175-3.725l-1.381-1.282A8.15 8.15 0 0 1 14.405 20M10.457 5.75c1.038 0 1.88-.84 1.88-1.875A1.88 1.88 0 0 0 10.458 2c-1.04 0-1.882.84-1.882 1.875s.842 1.875 1.882 1.875"/>
    <path fill="#fff" d="M8.575 13.25c.694 0 1.256-.56 1.256-1.25s-.562-1.25-1.256-1.25S7.32 11.31 7.32 12s.562 1.25 1.256 1.25M12 22c.867 0 1.57-.7 1.57-1.563 0-.862-.703-1.562-1.57-1.562-.866 0-1.568.7-1.568 1.562S11.134 22 12 22m3.625-7.35a3.757 3.757 0 0 1-5.956-.838l-1.875.438a5.642 5.642 0 0 0 9.162 1.725zm.187-5.1a3.755 3.755 0 0 0-6.106.575H7.644a5.644 5.644 0 0 1 9.587-1.813z"/>
</svg>
